X:1
T:Title
%%score ( 1 2 ) ( 3 4 )
L:1/8
Q:1/4=105
M:3/4
K:Eb
V:1 treble nm="Choir Aahs, Unnamed-000"
V:2 treble 
V:3 bass nm="Choir Aahs, Unnamed-001"
V:4 bass 
V:1
 E2 [EF]2 [EG]2 | [EB]3 [EA] [EG]2 | [EG]2 FG [DA]2 | [EG]6 | [CG]2 c-[Dc] [Ec]2 | %5
w: By~John~Bacchus~Dykes,~1859 * *|||||
 [DB]3 [D=A] [DG]2 | [DG]2 _G=G [D=A]2 | G4 B2 | [EB]2 [F_d]2 [Ec]2 | [EB]3 [CB] AF | E2 [EF]2 GB | %11
w: ||||||
 [EB]3 [EA] [EG]2 | [EG]2 FE [B,F]2 | [B,E]6 |] %14
w: |||
V:2
 x6 | x6 | z2 E2 z2 | x6 | z2 .C2 z2 | x6 | z2 D2 z2 | D6 | x6 | z2 z2 D2 | z2 z2 E2 | x6 | %12
 z2 B,2 z2 | x6 |] %14
V:3
 [E,G,]2 [E,A,]2 [E,B,]2 | [E,C]3 [E,C] [E,B,]2 | [B,,B,]2 [B,,B,]2 [B,,B,]2 | [E,B,]6 | %4
 [E,G,]2 E,F, G,=A, | [G,B,]3 [G,C] [G,B,]2 | [D,B,]2 =A,B, [D,C]2 | [G,B,]4 [F,A,]2 | %8
 [E,G,]2 A,3 F, | [B,,G,]3 [B,,G,] F,A, | [E,G,]2 [E,A,]2 B,_D | [A,,C]3 [A,,C] [E,B,]2 | %12
 [B,,B,]2 [B,,G,]2 [B,,A,]2 | [E,G,]6 |] %14
V:4
 x6 | x6 | x6 | x6 | z2 C,2 C,2 | x6 | z2 D,2 z2 | x6 | z2 _D,2 A,,2 | z2 z2 B,,2 | z2 z2 E,2 | %11
 x6 | x6 | x6 |] %14

